X:1
T: 约定
M:4/4
L:1/4
Q:1/4=120
K:C
"Am"E, E,/F,/ z/A,/ C/A/|"Bm"B G/G/-G z/C/4A,/4|
"F"C2 C3/4C/-C/D/ |"G"B,/C/ B,/G,/ G, z/E,/|
"F"F,/E,/ F,/C/-C z3/4C/4|"G"B,/G,/G/D/-D z/D/4E/4 |
"Dm"F/E/ C/A,/ C A G/|"G"D3 z/4C/4D/4C/4|
B,3 z/G,/|"C"C/D/ E/D/ C E|
"G"D3/2 G, G, z/E,/|"Am"A,/B,/ C/B,/ A, C|
"G"B,3/2 E,/ G,2 |"F"A,/G,/ G,/F,/ F,/ C E,/|
"Em"E,-E/4D/4-E/ "Am"C z/D/4E/4|"F"F/E/ E/D/ C A,|
"G"D3 z/G,/|]